X: 52
T:Jackson's Stranger (#162)
M:6/8
L:1/8
S:O'Farrell's Pocket Companion 1804-10
K:D
(3A/2B/2c/2|dAF FAF|dAF F2 F|cAF FAF|AFE E2 F|
dAF FAF|dAF F2 d|cBA BAF|AFE E2:|
|:c/2d/2|ecA cBA|ecA A2 f|ecA c2 B|AFE E2 c/2d/2|
ecA cBA|ecA A2 d|cBA BAF|AFE E2:|
|:F|dFd FdF|dAF F2 F|dFd FdF|AFE E2 F|
dFd FdF|dAF F2 d|cBA BAF|AFE E2:||

